third_party/noto/noto_2/emoji_u1fa9b.svg

<svg enable-background="new 0 0 128 128" version="1.1" viewBox="0 0 128 128" xmlns="http://www.w3.org/2000/svg"><path d="m119.06 116.56c9.42-10.14 2.87-17.51 0.76-19.62-18.5-18.5-22.34-22.38-27.86-27.9-4.67-4.67-10.05-3.86-12.27-6.07-2.22-2.22 0.69-6.32-3.27-10.29-4.06-4.06-7.36-1.97-7.36-1.97s-3.56 3.03-7.28 6.81c-4.3 4.17-10.16 10.54-10.16 10.54s-2.06 3.36 2 7.42c3.86 3.86 8.07 1.05 10.29 3.27s1.4 7.6 6.07 12.27c5.52 5.52 9.4 9.36 27.9 27.86 2.13 2.13 9.63 8.8 19.93-1.05l1.25-1.27z" fill="#F44336"/><ellipse transform="matrix(.7071 -.7071 .7071 .7071 -25.046 61.779)" cx="62.05" cy="61.12" rx="14.85" ry="4.63" fill="#FF7555"/><path d="m112.08 113.59c0.65 0 1.31-0.25 1.81-0.75 1-1 1-2.62 0-3.61l-27.85-27.85c-1-1-2.62-1-3.61 0-1 1-1 2.62 0 3.61l27.85 27.85c0.49 0.5 1.14 0.75 1.8 0.75z" fill="#FF7555"/><line x1="76.79" x2="103.2" y1="90.19" y2="116.6" fill="none" stroke="#C62828" stroke-linecap="round" stroke-miterlimit="10" stroke-width="4.0897"/><line x1="91.18" x2="117.59" y1="75.8" y2="102.21" fill="none" stroke="#FF7555" stroke-linecap="round" stroke-miterlimit="10" stroke-width="4.0897"/><path d="m77.68 68.25c0.78-7.99-2.42-3.4-4.9-0.68-9.26 10.14-14.17 10.13-14.17 10.13 0.03 0 0.32 0.02 0.34 0.02 2.05 0.21 3.77-0.14 4.95 1.04 2.22 2.22 1.4 7.6 6.07 12.27l1.47 1.47c-2.93-8.99 5.27-14.39 6.24-24.25z" fill="#C62828"/><path d="m9.19 5.94-3.64 3.64c-0.59 0.59-0.33 1.29 0.21 1.91l7 9.33 8.3 8.3 35.74 35.73s2.57-0.36 5.25-3.04 2.74-4.94 2.74-4.94l-35.18-35.19-4.37-7.66-13.87-8.51c-0.63-0.45-1.63-0.11-2.18 0.43z" fill="#94D1E0"/><path d="m15.6 23.16-8.3-11.23-1.53-2.56c-0.85 0.66-0.8 2.11-0.27 2.72l8.35 15.02 8.06 2.86 34.9 34.9s1.04-0.15 2.48-0.94l-37.57-37.56-6.12-3.21z" fill="#82AEC0"/><path d="m7.05 10.1 2.68-2.7c0.56-0.61 1.15-0.5 1.6-0.17l11.47 8.11c0.15 0.1 0.48 0.35 0.56 0.51l2.85 5.65c0.02 0.09-4.44 4.94-4.48 4.86l-6.5-1.77c-0.11-0.05-0.22-0.12-0.31-0.2l-7.83-12.65c-0.41-0.63-0.5-1.19-0.04-1.64z" fill="#CAF4F9"/></svg>

<?xml version="1.0" encoding="utf-8"?>
<!-- Generator: Adobe Illustrator 25.2.3, SVG Export Plug-In . SVG Version: 6.00 Build 0)  -->
<svg version="1.1" id="Layer_3" xmlns="http://www.w3.org/2000/svg" xmlns:xlink="http://www.w3.org/1999/xlink" x="0px" y="0px"
	 viewBox="0 0 128 128" style="enable-background:new 0 0 128 128;" xml:space="preserve">
<g>
	<g>
		<path style="fill:#F44336;" d="M119.06,116.56c9.42-10.14,2.87-17.51,0.76-19.62c-18.5-18.5-22.34-22.38-27.86-27.9
			c-4.67-4.67-10.05-3.86-12.27-6.07c-2.22-2.22,0.69-6.32-3.27-10.29c-4.06-4.06-7.36-1.97-7.36-1.97s-3.56,3.03-7.28,6.81l0,0
			c-4.3,4.17-10.16,10.54-10.16,10.54s-2.06,3.36,2,7.42c3.86,3.86,8.07,1.05,10.29,3.27c2.22,2.22,1.4,7.6,6.07,12.27
			c5.52,5.52,9.4,9.36,27.9,27.86c2.13,2.13,9.63,8.8,19.93-1.05L119.06,116.56z"/>
		
			<ellipse transform="matrix(0.7071 -0.7071 0.7071 0.7071 -25.0461 61.7789)" style="fill:#FF7555;" cx="62.05" cy="61.12" rx="14.85" ry="4.63"/>
		<path style="fill:#FF7555;" d="M112.08,113.59c0.65,0,1.31-0.25,1.81-0.75c1-1,1-2.62,0-3.61L86.04,81.38c-1-1-2.62-1-3.61,0
			c-1,1-1,2.62,0,3.61l27.85,27.85C110.77,113.34,111.42,113.59,112.08,113.59z"/>
		
			<line style="fill:none;stroke:#C62828;stroke-width:4.0897;stroke-linecap:round;stroke-miterlimit:10;" x1="76.79" y1="90.19" x2="103.2" y2="116.6"/>
		
			<line style="fill:none;stroke:#FF7555;stroke-width:4.0897;stroke-linecap:round;stroke-miterlimit:10;" x1="91.18" y1="75.8" x2="117.59" y2="102.21"/>
		<path style="fill:#C62828;" d="M77.68,68.25c0.78-7.99-2.42-3.4-4.9-0.68c-9.26,10.14-14.17,10.13-14.17,10.13
			c0.03,0,0.32,0.02,0.34,0.02c2.05,0.21,3.77-0.14,4.95,1.04c2.22,2.22,1.4,7.6,6.07,12.27c0.61,0.61,1.08,1.08,1.47,1.47
			c0,0,0,0,0,0C68.51,83.51,76.71,78.11,77.68,68.25z"/>
	</g>
	<g>
		<path style="fill:#94D1E0;" d="M9.19,5.94L5.55,9.58c-0.59,0.59-0.33,1.29,0.21,1.91l7,9.33l8.3,8.3L56.8,64.85
			c0,0,2.57-0.36,5.25-3.04s2.74-4.94,2.74-4.94L29.61,21.68l-4.37-7.66L11.37,5.51C10.74,5.06,9.74,5.4,9.19,5.94z"/>
		<path style="fill:#82AEC0;" d="M15.6,23.16L7.3,11.93L5.77,9.37c-0.85,0.66-0.8,2.11-0.27,2.72l8.35,15.02l8.06,2.86l34.9,34.9
			c0,0,1.04-0.15,2.48-0.94L21.72,26.37L15.6,23.16z"/>
		<path style="fill:#CAF4F9;" d="M7.05,10.1l2.68-2.7c0.56-0.61,1.15-0.5,1.6-0.17l11.47,8.11c0.15,0.1,0.48,0.35,0.56,0.51
			l2.85,5.65c0.02,0.09-4.44,4.94-4.48,4.86l-6.5-1.77c-0.11-0.05-0.22-0.12-0.31-0.2L7.09,11.74C6.68,11.11,6.59,10.55,7.05,10.1z"
			/>
	</g>
</g>
</svg>
